_site/images/pro/feature-support.svg

<svg height="80" viewBox="0 0 80 80" width="80" xmlns="http://www.w3.org/2000/svg"><g fill="none" fill-rule="evenodd"><path d="m22.017334 65h-1.9169922v-7.5791016h-2.6469727v-1.5805664h7.2172852v1.5805664h-2.6533203zm3.5991211 0v-9.159668h1.8217773v3.5800782h.038086c.3808593-.869629 1.1044921-1.3266602 2.1391601-1.3266602 1.5107422 0 2.3740235.9775391 2.3740235 2.5517578v4.3544922h-1.8535157v-3.9609375c0-.8759766-.4316406-1.4091797-1.2758789-1.4091797-.8759765 0-1.3901367.6157227-1.3901367 1.5107422v3.859375zm10.1816406-1.2441406c.8188477 0 1.4726563-.5205078 1.4726563-1.2504883v-.4887695l-1.4028321.0888672c-.7363281.0507812-1.1298828.349121-1.1298828.8315429 0 .4951172.4189453.8188477 1.0600586.8188477zm-.609375 1.3457031c-1.3076172 0-2.2978516-.8442383-2.2978516-2.0629883 0-1.237793.9521485-1.9423828 2.6977539-2.0439453l1.682129-.1015625v-.4443359c0-.6411133-.444336-.9902344-1.1679688-.9902344-.6411133 0-1.0981445.3364258-1.1806641.8251953h-1.6884765c.0507812-1.3139648 1.2250976-2.2089844 2.9516601-2.2089844 1.7519532 0 2.9072266.9013672 2.9072266 2.2597657v4.6655273h-1.7900391v-1.0410156h-.0380859c-.3745117.7109375-1.2124023 1.1425781-2.0756836 1.1425781zm5.097168-.1015625v-6.8046875h1.790039v1.2250977h.038086c.387207-.869629 1.0791015-1.3266602 2.1264648-1.3266602 1.5107422 0 2.3613281.9521484 2.3613281 2.5454102v4.3608398h-1.8535156v-3.9736328c0-.8886719-.4125976-1.3964844-1.2568359-1.3964844-.8378906 0-1.3520508.609375-1.3520508 1.4980469v3.8720703zm9.4135742-4.0751953 2.3105469-2.7294922h2.1010742l-2.5961914 2.9199219 2.7231445 3.8847656h-2.1328125l-1.9487305-2.7675781-.4824218.5205078v2.2470703h-1.8535157v-9.159668h1.8535157v5.0844727zm4.8305664-.7172852c0-1.2885742 1.1235352-2.1328125 2.8691406-2.1328125 1.7011719 0 2.8247071.8569336 2.84375 2.1708985h-1.7075195c-.0317383-.5332032-.4760742-.8696289-1.1616211-.8696289-.6347656 0-1.0600586.2856445-1.0600586.7172851 0 .3300781.2919922.5522461.8886719.6918945l1.3012695.2792969c1.3647461.3046875 1.9169922.8378907 1.9169922 1.847168 0 1.3330078-1.2314453 2.2089844-3.027832 2.2089844-1.8154297 0-2.9389649-.8696289-3.0341797-2.1899414h1.809082c.0825195.5649414.5395508.8886718 1.2758789.8886718.6982422 0 1.1298828-.2729492 1.1298828-.7109375 0-.3364257-.2285156-.5205078-.8378906-.6665039l-1.2568359-.2792968c-1.2885743-.2919922-1.9487305-.9584961-1.9487305-1.9550782zm7.3125-4.3671875h1.9042969l-.1523438 6.1445313h-1.5996094zm.9521484 9.3183594c-.5776367 0-1.0346679-.4379883-1.0346679-.996582 0-.5585938.4570312-.9965821 1.0346679-.9965821.5776368 0 1.034668.4379883 1.034668.9965821 0 .5585937-.4570312.996582-1.034668.996582z" fill="#2f2323"/><g fill="#3488c8" fill-rule="nonzero" transform="translate(25 16)"><path d="m26.0741992 22.5370996c0 .8079376.6549628 1.4629004 1.4629004 1.4629004s1.4629004-.6549628 1.4629004-1.4629004v-21.07419921c0-.80793757-.6549628-1.46290039-1.4629004-1.46290039h-21.07419921c-.80793758 0-1.46290039.65496282-1.46290039 1.46290039 0 .80793758.65496281 1.46290039 1.46290039 1.46290039h19.61129881z"/><path d="m21.1664408 8.8335592v8.2496612c0 .5063234.4104562.9167796.9167796.9167796s.9167796-.4104562.9167796-.9167796v-9.1664408c0-.50632339-.4104562-.9167796-.9167796-.9167796h-9.1664408c-.5063234 0-.9167796.41045621-.9167796.9167796s.4104562.9167796.9167796.9167796z"/><path d="m21.0741992 7.92580078v19.61129882c0 .8079376.6549628 1.4629004 1.4629004 1.4629004s1.4629004-.6549628 1.4629004-1.4629004v-21.07419921c0-.80793758-.6549628-1.46290039-1.4629004-1.46290039h-21.07419921c-.80793757 0-1.46290039.65496281-1.46290039 1.46290039s.65496282 1.46290039 1.46290039 1.46290039z" transform="matrix(-1 0 0 -1 24 34)"/></g></g></svg>

<?xml version="1.0" encoding="UTF-8"?>
<svg width="80px" height="80px" viewBox="0 0 80 80" version="1.1" xmlns="http://www.w3.org/2000/svg" xmlns:xlink="http://www.w3.org/1999/xlink">
    <!-- Generator: Sketch 49.2 (51160) - http://www.bohemiancoding.com/sketch -->
    <title>feature-support</title>
    <desc>Created with Sketch.</desc>
    <defs></defs>
    <g id="feature-support" stroke="none" stroke-width="1" fill="none" fill-rule="evenodd">
        <path d="M22.017334,65 L20.1003418,65 L20.1003418,57.4208984 L17.4533691,57.4208984 L17.4533691,55.840332 L24.6706543,55.840332 L24.6706543,57.4208984 L22.017334,57.4208984 L22.017334,65 Z M25.6164551,65 L25.6164551,55.840332 L27.4382324,55.840332 L27.4382324,59.4204102 L27.4763184,59.4204102 C27.8571777,58.5507812 28.5808105,58.09375 29.6154785,58.09375 C31.1262207,58.09375 31.989502,59.0712891 31.989502,60.6455078 L31.989502,65 L30.1359863,65 L30.1359863,61.0390625 C30.1359863,60.1630859 29.7043457,59.6298828 28.8601074,59.6298828 C27.9841309,59.6298828 27.4699707,60.2456055 27.4699707,61.140625 L27.4699707,65 L25.6164551,65 Z M35.7980957,63.7558594 C36.6169434,63.7558594 37.270752,63.2353516 37.270752,62.5053711 L37.270752,62.0166016 L35.8679199,62.1054688 C35.1315918,62.15625 34.7380371,62.4545898 34.7380371,62.9370117 C34.7380371,63.4321289 35.1569824,63.7558594 35.7980957,63.7558594 Z M35.1887207,65.1015625 C33.8811035,65.1015625 32.8908691,64.2573242 32.8908691,63.0385742 C32.8908691,61.8007812 33.8430176,61.0961914 35.588623,60.9946289 L37.270752,60.8930664 L37.270752,60.4487305 C37.270752,59.8076172 36.826416,59.4584961 36.1027832,59.4584961 C35.4616699,59.4584961 35.0046387,59.7949219 34.9221191,60.2836914 L33.2336426,60.2836914 C33.2844238,58.9697266 34.4587402,58.074707 36.1853027,58.074707 C37.9372559,58.074707 39.0925293,58.9760742 39.0925293,60.3344727 L39.0925293,65 L37.3024902,65 L37.3024902,63.9589844 L37.2644043,63.9589844 C36.8898926,64.6699219 36.052002,65.1015625 35.1887207,65.1015625 Z M40.2858887,65 L40.2858887,58.1953125 L42.0759277,58.1953125 L42.0759277,59.4204102 L42.1140137,59.4204102 C42.5012207,58.5507812 43.1931152,58.09375 44.2404785,58.09375 C45.7512207,58.09375 46.6018066,59.0458984 46.6018066,60.6391602 L46.6018066,65 L44.748291,65 L44.748291,61.0263672 C44.748291,60.1376953 44.3356934,59.6298828 43.4914551,59.6298828 C42.6535645,59.6298828 42.1394043,60.2392578 42.1394043,61.1279297 L42.1394043,65 L40.2858887,65 Z M49.6994629,60.9248047 L52.0100098,58.1953125 L54.111084,58.1953125 L51.5148926,61.1152344 L54.2380371,65 L52.1052246,65 L50.1564941,62.2324219 L49.6740723,62.7529297 L49.6740723,65 L47.8205566,65 L47.8205566,55.840332 L49.6740723,55.840332 L49.6740723,60.9248047 L49.6994629,60.9248047 Z M54.5300293,60.2075195 C54.5300293,58.9189453 55.6535645,58.074707 57.3991699,58.074707 C59.1003418,58.074707 60.223877,58.9316406 60.2429199,60.2456055 L58.5354004,60.2456055 C58.5036621,59.7124023 58.0593262,59.3759766 57.3737793,59.3759766 C56.7390137,59.3759766 56.3137207,59.6616211 56.3137207,60.0932617 C56.3137207,60.4233398 56.6057129,60.6455078 57.2023926,60.7851562 L58.5036621,61.0644531 C59.8684082,61.3691406 60.4206543,61.9023438 60.4206543,62.9116211 C60.4206543,64.2446289 59.189209,65.1206055 57.3928223,65.1206055 C55.5773926,65.1206055 54.4538574,64.2509766 54.3586426,62.9306641 L56.1677246,62.9306641 C56.2502441,63.4956055 56.7072754,63.8193359 57.4436035,63.8193359 C58.1418457,63.8193359 58.5734863,63.5463867 58.5734863,63.1083984 C58.5734863,62.7719727 58.3449707,62.5878906 57.7355957,62.4418945 L56.4787598,62.1625977 C55.1901855,61.8706055 54.5300293,61.2041016 54.5300293,60.2075195 Z M61.8425293,55.840332 L63.7468262,55.840332 L63.5944824,61.9848633 L61.994873,61.9848633 L61.8425293,55.840332 Z M62.7946777,65.1586914 C62.217041,65.1586914 61.7600098,64.7207031 61.7600098,64.1621094 C61.7600098,63.6035156 62.217041,63.1655273 62.7946777,63.1655273 C63.3723145,63.1655273 63.8293457,63.6035156 63.8293457,64.1621094 C63.8293457,64.7207031 63.3723145,65.1586914 62.7946777,65.1586914 Z" id="Thanks!" fill="#2F2323"></path>
        <g id="Group" transform="translate(25.000000, 16.000000)" fill="#3488C8" fill-rule="nonzero">
            <path d="M26.0741992,22.5370996 C26.0741992,23.3450372 26.729162,24 27.5370996,24 C28.3450372,24 29,23.3450372 29,22.5370996 L29,1.46290039 C29,0.654962815 28.3450372,0 27.5370996,0 L6.46290039,0 C5.65496281,0 5,0.654962815 5,1.46290039 C5,2.27083797 5.65496281,2.92580078 6.46290039,2.92580078 L26.0741992,2.92580078 L26.0741992,22.5370996 Z" id="Path-2"></path>
            <path d="M21.1664408,8.8335592 L21.1664408,17.0832204 C21.1664408,17.5895438 21.576897,18 22.0832204,18 C22.5895438,18 23,17.5895438 23,17.0832204 L23,7.9167796 C23,7.41045621 22.5895438,7 22.0832204,7 L12.9167796,7 C12.4104562,7 12,7.41045621 12,7.9167796 C12,8.42310299 12.4104562,8.8335592 12.9167796,8.8335592 L21.1664408,8.8335592 Z" id="Path-2"></path>
            <path d="M21.0741992,7.92580078 L21.0741992,27.5370996 C21.0741992,28.3450372 21.729162,29 22.5370996,29 C23.3450372,29 24,28.3450372 24,27.5370996 L24,6.46290039 C24,5.65496281 23.3450372,5 22.5370996,5 L1.46290039,5 C0.654962815,5 0,5.65496281 0,6.46290039 C0,7.27083797 0.654962815,7.92580078 1.46290039,7.92580078 L21.0741992,7.92580078 Z" id="Path-2" transform="translate(12.000000, 17.000000) rotate(-180.000000) translate(-12.000000, -17.000000) "></path>
        </g>
    </g>
</svg>
